src/assets/images/logo.svg

<?xml version="1.0" encoding="UTF-8" standalone="no"?>
<svg
   width="32"
   height="32"
   viewBox="0 0 32 32"
   fill="none"
   version="1.1"
   id="svg20"
   xmlns="http://www.w3.org/2000/svg"
   xmlns:svg="http://www.w3.org/2000/svg"><defs
   id="defs24" />
<style
   id="style2" />
<rect
   id="rect4" />
<path
   fill-rule="evenodd"
   clip-rule="evenodd"
   d="M8.828 2.79739C8.828 1.3388 10.0087 0.156382 11.4653 0.156377C13.7014 0.15637 16.0769 1.07512 18.2131 2.28244C20.4071 3.5224 22.6205 5.22166 24.5949 7.12315C26.5683 9.0237 28.3704 11.1911 29.6968 13.4053C30.996 15.5743 31.9796 18.0229 31.9796 20.4274C31.9796 21.886 30.7989 23.0684 29.3423 23.0684C27.8858 23.0684 26.7051 21.886 26.7051 20.4274C26.7051 19.3844 26.2417 17.9054 25.1736 16.1224C24.1325 14.3845 22.6469 12.5753 20.9387 10.9303C19.2315 9.28615 17.3694 7.87073 15.6207 6.88243C13.8143 5.86148 12.3798 5.43837 11.4653 5.43838C10.0088 5.43838 8.82801 4.25597 8.828 2.79739Z"
   fill="#BC823C"
   fill-opacity="0.6"
   id="path6" />
<path
   d="M25.616 23.1857C25.616 16.5572 14.4922 6.23709 8.43697 6.23702L0.196988 32L25.616 23.1857Z"
   fill="#BC823C"
   fill-opacity="0.6"
   id="path8" />
<path
   fill-rule="evenodd"
   clip-rule="evenodd"
   d="M13.426 11.883C13.426 11.3526 13.8554 10.9226 14.385 10.9226C14.7956 10.9226 15.1727 11.0853 15.4457 11.2396C15.7398 11.4058 16.024 11.6258 16.2716 11.8642C16.5188 12.1023 16.7541 12.3824 16.9339 12.6826C17.1039 12.9664 17.2767 13.355 17.2767 13.7889C17.2767 14.3193 16.8473 14.7493 16.3177 14.7493C15.7969 14.7493 15.373 14.3335 15.359 13.8153C15.3557 13.805 15.3412 13.7575 15.2891 13.6707C15.213 13.5436 15.0928 13.3938 14.9421 13.2486C14.7916 13.1038 14.6352 12.987 14.5031 12.9123C14.4122 12.8609 14.3629 12.8462 14.3526 12.8428C13.8379 12.8256 13.426 12.4025 13.426 11.883Z"
   fill="white"
   id="path10" />
<path
   d="M13.9056 19.071C13.9056 19.6014 13.4762 20.0314 12.9466 20.0314C12.4169 20.0314 11.9875 19.6014 11.9875 19.071C11.9875 18.5406 12.4169 18.1107 12.9466 18.1107C13.4762 18.1107 13.9056 18.5406 13.9056 19.071Z"
   fill="white"
   id="path12" />
<path
   fill-rule="evenodd"
   clip-rule="evenodd"
   d="M18.221 20.0313C18.7507 20.0313 19.18 19.6014 19.18 19.071C19.18 18.5406 18.7507 18.1106 18.221 18.1106C17.6914 18.1106 17.262 18.5406 17.262 19.071C17.262 19.6014 17.6914 20.0313 18.221 20.0313ZM18.221 21.9521C19.81 21.9521 21.098 20.6622 21.098 19.071C21.098 17.4798 19.81 16.1899 18.221 16.1899C16.6321 16.1899 15.344 17.4798 15.344 19.071C15.344 20.6622 16.6321 21.9521 18.221 21.9521Z"
   fill="white"
   id="path14" />
<path
   id="path1927"
   style="fill:#ffffff"
   d="M 7.5527344 9.0058594 L 6.9394531 10.919922 C 7.023054 10.912607 7.1078626 10.908203 7.1933594 10.908203 C 8.7822894 10.908203 10.070312 12.197863 10.070312 13.789062 C 10.070313 15.380263 8.7822894 16.669922 7.1933594 16.669922 C 6.4783364 16.669922 5.8254799 16.406933 5.3222656 15.974609 L 4.7089844 17.892578 C 5.4338853 18.33355 6.2832123 18.589844 7.1933594 18.589844 C 9.8415794 18.589844 11.988281 16.441063 11.988281 13.789062 C 11.988281 11.258586 10.03246 9.1905517 7.5527344 9.0058594 z " />
<path
   id="path1482"
   style="fill:#ffffff"
   d="M 11.029297 21.472656 C 8.3810468 21.472656 6.234375 23.621538 6.234375 26.273438 C 6.234375 27.506636 6.7018681 28.628142 7.4648438 29.478516 L 9.5625 28.751953 C 8.718376 28.249845 8.1523438 27.327972 8.1523438 26.273438 C 8.1523438 24.682338 9.4403368 23.392578 11.029297 23.392578 C 12.618197 23.392578 13.90625 24.682337 13.90625 26.273438 C 13.90625 26.640142 13.835683 26.989902 13.710938 27.3125 L 15.808594 26.585938 C 15.815251 26.482392 15.824219 26.378667 15.824219 26.273438 C 15.824219 23.621537 13.677497 21.472656 11.029297 21.472656 z " />
</svg>

<?xml version="1.0" encoding="UTF-8"?>
<svg width="32" height="32" fill="none" version="1.1" viewBox="0 0 32 32" xmlns="http://www.w3.org/2000/svg">
 <style/>
 <rect/>
 <path d="m8.828 2.7974c0-1.4586 1.1807-2.641 2.6373-2.641 2.2361-7e-6 4.6116 0.91874 6.7478 2.1261 2.194 1.24 4.4074 2.9392 6.3818 4.8407 1.9734 1.9006 3.7755 4.068 5.1019 6.2822 1.2992 2.169 2.2828 4.6176 2.2828 7.0221 0 1.4586-1.1807 2.641-2.6373 2.641-1.4565 0-2.6372-1.1824-2.6372-2.641 0-1.043-0.4634-2.522-1.5315-4.305-1.0411-1.7379-2.5267-3.5471-4.2349-5.1921-1.7072-1.6442-3.5693-3.0596-5.318-4.0479-1.8064-1.021-3.2409-1.4441-4.1554-1.444-1.4565 0-2.6373-1.1824-2.6373-2.641z" clip-rule="evenodd" fill="#BC823C" fill-opacity=".6" fill-rule="evenodd"/>
 <path d="m25.616 23.186c0-6.6285-11.124-16.949-17.179-16.949l-8.24 25.763 25.419-8.8143z" fill="#BC823C" fill-opacity=".6"/>
 <g fill="#fff">
  <path d="m13.426 11.883c0-0.5304 0.4294-0.9604 0.959-0.9604 0.4106 0 0.7877 0.1627 1.0607 0.317 0.2941 0.1662 0.5783 0.3862 0.8259 0.6246 0.2472 0.2381 0.4825 0.5182 0.6623 0.8184 0.17 0.2838 0.3428 0.6724 0.3428 1.1063 0 0.5304-0.4294 0.9604-0.959 0.9604-0.5208 0-0.9447-0.4158-0.9587-0.934-0.0033-0.0103-0.0178-0.0578-0.0699-0.1446-0.0761-0.1271-0.1963-0.2769-0.347-0.4221-0.1505-0.1448-0.3069-0.2616-0.439-0.3363-0.0909-0.0514-0.1402-0.0661-0.1505-0.0695-0.5147-0.0172-0.9266-0.4403-0.9266-0.9598z" clip-rule="evenodd" fill-rule="evenodd"/>
  <path d="m13.906 19.071c0 0.5304-0.4294 0.9604-0.959 0.9604-0.5297 0-0.9591-0.43-0.9591-0.9604s0.4294-0.9603 0.9591-0.9603c0.5296 0 0.959 0.4299 0.959 0.9603z"/>
  <path d="m18.221 20.031c0.5297 0 0.959-0.4299 0.959-0.9603s-0.4293-0.9604-0.959-0.9604c-0.5296 0-0.959 0.43-0.959 0.9604s0.4294 0.9603 0.959 0.9603zm0 1.9208c1.589 0 2.877-1.2899 2.877-2.8811s-1.288-2.8811-2.877-2.8811c-1.5889 0-2.877 1.2899-2.877 2.8811s1.2881 2.8811 2.877 2.8811z" clip-rule="evenodd" fill-rule="evenodd"/>
  <path d="m7.5527 9.0059-0.61328 1.9141c0.083601-0.007315 0.16841-0.011719 0.25391-0.011719 1.5889 0 2.877 1.2897 2.877 2.8809 1e-6 1.5912-1.288 2.8809-2.877 2.8809-0.71502 0-1.3679-0.26299-1.8711-0.69531l-0.61328 1.918c0.7249 0.44097 1.5742 0.69727 2.4844 0.69727 2.6482 0 4.7949-2.1488 4.7949-4.8008 0-2.5305-1.9558-4.5985-4.4355-4.7832z"/>
  <path d="m11.029 21.473c-2.6483 0-4.7949 2.1489-4.7949 4.8008 0 1.2332 0.46749 2.3547 1.2305 3.2051l2.0977-0.72656c-0.84412-0.50211-1.4102-1.424-1.4102-2.4785 0-1.5911 1.288-2.8809 2.877-2.8809 1.5889 0 2.877 1.2898 2.877 2.8809 0 0.3667-0.070567 0.71646-0.19531 1.0391l2.0977-0.72656c0.006657-0.10355 0.015625-0.20727 0.015625-0.3125 0-2.6519-2.1467-4.8008-4.7949-4.8008z"/>
 </g>
</svg>
